X: 1
T: Polska efter Olof R\"onnqvist
O: Uppt. & arr. Alfred R\"onnqvist
R: polska, mazurka
Z: 2009 John Chambers <jc@trillian.mit.edu>
M: 3/4
L: 1/8
K: G
d \
|: d>c B2 g2 | d>B G3 B | A>F DF Ac |1,3 {Bc}BA/B/ GA Bc :|2,4 {Bc}BA/B/ "fine"G3 :|
K: D
z \
|: A>B AG (3A(Bc) | d>e f2 f2 | g>f ed eg |1,3 (3f(ef) (3a(fe) d2 :|2,4 (3f(ef) d3 :|
